X:532191
F:http://www.vwml.org/record/HAM/5/32/19%%VWML:HAM-5-32-19-0
T:Young Maids, Never Wed an Old Man.
S:Mrs Marina Russell, Upwey coll. HED Hammond
O:England
A:Dorset
N:Transcribed from HAM-05-052.gif
F:HAM-05-32-19.abc
Z:EFDSS;PJHeadford
M:6/8
L:1/8
Q:3/8=100
K:F
F E F G A B|c B G F E C|F E F G A B|c A F G3|
d d d c A A|B A G G E C|F E F G A B|c B G F3||
W:[left of the title:] 520,[below title, on sticky label:] D.787
W:[right of the label:] Mrs. Russell, Upwey. [below and right of tune, initialled:] FEP
% downloaded from http://folkopedia.efdss.org/HAM-05-32-20.abc
